X:23
T:Napoleon’s March. HS.23
T:Napoleon’s Grand March,aka. HS.23
M:C|
L:1/8
Q:1/4=110
S:Henry Stables MS,Cumbria,late19thC
R:.March
O:Walthwaite,nr.Ambleside.
A:England
Z:vmp.Chris Partington
K:D
A2|d2d>dd2A2|e2e>ee2de|f2efg2f2|e2e>ee2A2|!
dd AA FF AA|dd AA FF AA|d3f edef|d2d>dd2:|!
|:f2|edcB ABcA|d2d>dd3f|edcB ABcA|d2d>d defd|!
(B2g2g2)fe|(A2f2f2)gf|edef edef|d2d>dd2:|!
|:”^P”fg|~a4 ~b4|a2a>gf2a2|~g4f2af|e2e>ee3a|!
.g.f.e.d. .c.B.A.G|a2ff dd AA|f2fa gfed|a2a>aa3f|!
“^F”.e.d.c.B ABcA|d2d>dd3f|.e.d.c.B ABcA|d2d>d .d.c.B.A|!
B2g2g2fe|A2f2f2gf|edef edef|d2d>dd2|]

